img/buy-img-3.svg

<svg width="203" height="81" viewBox="0 0 203 81" fill="none" xmlns="http://www.w3.org/2000/svg">
<path d="M0 45C3.47656 53.228 11.569 59 21 59C17.5234 50.7684 9.43103 45 0 45Z" fill="#12B36A"/>
<path d="M21 59C28.1126 59 34.2368 54.8974 37 49C29.8891 49 23.765 53.1026 21 59Z" fill="#12B36A"/>
<path fill-rule="evenodd" clip-rule="evenodd" d="M21 47C30.3887 47 38 39.3904 38 29.9999C38 20.6131 30.3887 13 21 13C11.6096 13 4 20.6131 4 29.9999C4 39.3904 11.6096 47 21 47ZM21 38.5012C25.6935 38.5012 29.4991 34.6954 29.4991 30.0002C29.4991 25.3051 25.6935 21.5011 21 21.5011C16.3047 21.5011 12.4991 25.3051 12.4991 30.0002C12.4991 34.6954 16.3047 38.5012 21 38.5012Z" fill="#FEBE10"/>
<path d="M131.682 29.7681H138.861V57.2301H131.682V46.535H119.147V57.2301H111.967V29.7681H119.147V39.8889H131.682V29.7681ZM142.242 36.58H151.18V57.2301H158.359V36.58H167.189V29.7681H142.242V36.58ZM202 51.257V57.0944C200.776 57.6989 199.247 58 197.462 58C193.732 58 191.855 56.3984 191.102 53.8189L190.983 53.9917C188.811 56.6822 185.807 58 181.911 58C178.18 58 175.008 56.6276 172.337 53.826C169.722 51.0245 168.387 47.5639 168.387 43.4992C168.387 39.4378 169.722 36.0319 172.337 33.2304C175.008 30.4306 178.18 29 181.911 29C185.634 29 188.543 30.2087 190.689 32.6701V29.7699H197.869V49.1956C197.869 50.8553 198.634 51.7099 200.164 51.7099C200.88 51.7082 201.491 51.5583 202 51.257ZM190.983 43.4973C190.983 41.249 190.26 39.3814 188.757 37.9524C187.31 36.4707 185.473 35.7553 183.246 35.7553C181.02 35.7553 179.184 36.4689 177.736 37.9524C176.29 39.3814 175.566 41.249 175.566 43.4973C175.566 45.751 176.29 47.6186 177.736 49.1022C179.184 50.5293 181.02 51.243 183.246 51.243C185.473 51.243 187.31 50.5293 188.757 49.1022C190.26 47.6186 190.983 45.751 190.983 43.4973ZM52.8222 29.7681L52.608 40.0863C52.558 44.2638 52.4044 46.3271 51.7921 48.6899C51.2313 50.9557 50.1602 51.5954 48.4801 51.5954C47.9177 51.5954 47.4088 51.5442 47 51.3927V57.2301C47.5605 57.5314 48.48 57.6812 49.7031 57.6812C54.7504 57.5314 57.1982 55.1809 58.423 50.9539C59.289 47.9341 59.4425 45.6187 59.596 42.1478L59.7567 36.5781H68.6713V57.2284H75.8503V29.7664H52.8222V29.7681ZM87.3984 45.3528C88.1714 50.0396 91.9368 51.5742 95.7576 51.5742C98.2893 51.5742 100.942 50.598 102.574 49.1375L107.002 53.5336C104.358 56.4231 100.676 58 95.6451 58C88.6017 58 80.1049 53.8965 80.1049 43.4992C80.1049 33.1036 88.2875 29 95.2363 29C104.026 29 107.663 33.0754 107.663 37.6441C107.664 45.1132 98.0447 48.5631 87.3984 45.3528ZM99.8693 38.4529C99.8693 36.3227 97.734 35.3712 95.3416 35.3712C91.6869 35.3712 88.5197 36.8935 87.5573 40.8122C95.0042 42.9353 99.8693 41.3513 99.8693 38.4529Z" fill="#0B27BD"/>
</svg>

<svg width="203" height="81" viewBox="0 0 203 81" fill="none" xmlns="http://www.w3.org/2000/svg"><path d="M0 45c3.477 8.228 11.569 14 21 14-3.477-8.232-11.569-14-21-14zm21 14c7.113 0 13.237-4.103 16-10-7.11 0-13.235 4.103-16 10z" fill="#12B36A"/><path fill-rule="evenodd" clip-rule="evenodd" d="M21 47c9.389 0 17-7.61 17-17 0-9.387-7.611-17-17-17-9.39 0-17 7.613-17 17 0 9.39 7.61 17 17 17zm0-8.499a8.5 8.5 0 008.5-8.5 8.5 8.5 0 00-8.5-8.5 8.5 8.5 0 100 17z" fill="#FEBE10"/><path d="M131.682 29.768h7.179V57.23h-7.179V46.535h-12.535V57.23h-7.18V29.768h7.18v10.12h12.535v-10.12zm10.56 6.812h8.938v20.65h7.179V36.58h8.83v-6.812h-24.947v6.812zM202 51.257v5.837c-1.224.605-2.753.906-4.538.906-3.73 0-5.607-1.602-6.36-4.181l-.119.173c-2.172 2.69-5.176 4.008-9.072 4.008-3.731 0-6.903-1.372-9.574-4.174-2.615-2.801-3.95-6.262-3.95-10.327 0-4.061 1.335-7.467 3.95-10.269 2.671-2.8 5.843-4.23 9.574-4.23 3.723 0 6.632 1.209 8.778 3.67v-2.9h7.18v19.426c0 1.66.765 2.514 2.295 2.514.716-.002 1.327-.152 1.836-.453zm-11.017-7.76c0-2.248-.723-4.116-2.226-5.545-1.447-1.481-3.284-2.197-5.511-2.197-2.226 0-4.062.714-5.51 2.197-1.446 1.43-2.17 3.297-2.17 5.545 0 2.254.724 4.122 2.17 5.605 1.448 1.427 3.284 2.141 5.51 2.141 2.227 0 4.064-.714 5.511-2.14 1.503-1.484 2.226-3.352 2.226-5.606zM52.823 29.768l-.215 10.318c-.05 4.178-.204 6.241-.816 8.604-.56 2.266-1.632 2.905-3.312 2.905-.562 0-1.071-.05-1.48-.202v5.837c.56.301 1.48.451 2.703.451 5.047-.15 7.495-2.5 8.72-6.727.866-3.02 1.02-5.335 1.173-8.806l.16-5.57h8.915v20.65h7.18V29.766h-23.03v.002zm34.575 15.585c.773 4.687 4.539 6.221 8.36 6.221 2.531 0 5.184-.976 6.816-2.436l4.428 4.396C104.358 56.424 100.676 58 95.645 58c-7.043 0-15.54-4.103-15.54-14.5 0-10.396 8.182-14.5 15.131-14.5 8.79 0 12.427 4.075 12.427 8.644.001 7.47-9.618 10.92-20.265 7.709zm12.471-6.9c0-2.13-2.135-3.082-4.527-3.082-3.655 0-6.822 1.523-7.785 5.441 7.447 2.123 12.312.54 12.312-2.36z" fill="#0B27BD"/></svg>
